img/bell-icon.svg

<svg width="31" height="35" viewBox="0 0 31 35" fill="none" xmlns="http://www.w3.org/2000/svg">
<path d="M26.25 19.9394V16.8371H24V20.4167C23.996 20.5735 24.0241 20.7293 24.0824 20.8735C24.1407 21.0177 24.2277 21.1468 24.3375 21.2519L27.375 24.4735V26.3826H2.62499V24.4735L5.66249 21.2519C5.77229 21.1468 5.85932 21.0177 5.91758 20.8735C5.97584 20.7293 6.00396 20.5735 5.99999 20.4167V14.4507C5.99999 11.9191 6.9482 9.49121 8.63603 7.70109C10.3239 5.91097 12.613 4.9053 15 4.9053C16.5825 4.90562 18.1361 5.35464 19.5 6.20586V3.47348C18.4305 2.96536 17.291 2.64306 16.125 2.51893V0.132568H13.875V2.51893C11.1049 2.85386 8.54597 4.25214 6.68085 6.4501C4.81573 8.64805 3.77325 11.4938 3.74999 14.4507V19.9394L0.712487 23.161C0.602684 23.2661 0.515656 23.3952 0.457394 23.5393C0.399131 23.6835 0.371017 23.8394 0.374987 23.9962V27.5757C0.365043 27.7352 0.387327 27.895 0.440347 28.0445C0.493366 28.1941 0.575898 28.3299 0.682415 28.4429C0.788933 28.5558 0.916978 28.6434 1.05798 28.6996C1.19898 28.7558 1.34968 28.7795 1.49999 28.7689H9.37499C9.37499 30.3512 9.96762 31.8686 11.0225 32.9875C12.0774 34.1063 13.5081 34.7348 15 34.7348C16.4918 34.7348 17.9226 34.1063 18.9775 32.9875C20.0324 31.8686 20.625 30.3512 20.625 28.7689H28.5C28.6503 28.7795 28.801 28.7558 28.942 28.6996C29.083 28.6434 29.211 28.5558 29.3176 28.4429C29.4241 28.3299 29.5066 28.1941 29.5596 28.0445C29.6126 27.895 29.6349 27.7352 29.625 27.5757V23.9962C29.629 23.8394 29.6008 23.6835 29.5426 23.5393C29.4843 23.3952 29.3973 23.2661 29.2875 23.161L26.25 19.9394ZM15 32.3485C14.1049 32.3485 13.2464 31.9713 12.6135 31.3001C11.9806 30.6288 11.625 29.7183 11.625 28.7689H18.375C18.375 29.7183 18.0194 30.6288 17.3865 31.3001C16.7535 31.9713 15.8951 32.3485 15 32.3485Z" fill="url(#paint0_linear_7_124)"/>
<path d="M26.25 13.2576C28.7353 13.2576 30.75 11.1207 30.75 8.48482C30.75 5.84892 28.7353 3.7121 26.25 3.7121C23.7647 3.7121 21.75 5.84892 21.75 8.48482C21.75 11.1207 23.7647 13.2576 26.25 13.2576Z" fill="url(#paint1_linear_7_124)"/>
<defs>
<linearGradient id="paint0_linear_7_124" x1="0.372681" y1="0.132568" x2="26.2419" y2="0.132568" gradientUnits="userSpaceOnUse">
<stop stop-color="#FE5C28"/>
<stop offset="1" stop-color="#FF8B36" stop-opacity="0.9"/>
</linearGradient>
<linearGradient id="paint1_linear_7_124" x1="21.75" y1="3.7121" x2="29.7085" y2="3.7121" gradientUnits="userSpaceOnUse">
<stop stop-color="#FE5C28"/>
<stop offset="1" stop-color="#FF8B36" stop-opacity="0.9"/>
</linearGradient>
</defs>
</svg>

<svg width="31" height="35" fill="none" xmlns="http://www.w3.org/2000/svg"><path d="M26.25 19.94v-3.103H24v3.58c-.004.156.024.312.082.456.059.145.146.274.255.379l3.038 3.222v1.909H2.625v-1.91l3.037-3.221c.11-.105.197-.234.256-.378.058-.145.086-.3.082-.457V14.45c0-2.532.948-4.96 2.636-6.75 1.688-1.79 3.977-2.796 6.364-2.796 1.582 0 3.136.45 4.5 1.3V3.474a10.435 10.435 0 0 0-3.375-.954V.133h-2.25v2.386c-2.77.335-5.329 1.733-7.194 3.931-1.865 2.198-2.908 5.044-2.931 8v5.49L.712 23.16c-.11.105-.196.234-.255.378-.058.144-.086.3-.082.457v3.58c-.01.16.012.319.065.468.053.15.136.286.242.399.107.113.235.2.376.257.141.056.292.08.442.069h7.875c0 1.582.593 3.1 1.648 4.218 1.054 1.12 2.485 1.748 3.977 1.748s2.923-.629 3.977-1.748c1.055-1.118 1.648-2.636 1.648-4.218H28.5c.15.01.301-.013.442-.07.141-.056.269-.143.376-.256.106-.113.189-.249.242-.399.053-.149.075-.309.065-.468v-3.58a1.144 1.144 0 0 0-.082-.457 1.088 1.088 0 0 0-.255-.378l-3.038-3.222ZM15 32.348a3.28 3.28 0 0 1-2.386-1.049 3.693 3.693 0 0 1-.989-2.531h6.75c0 .95-.356 1.86-.988 2.531A3.28 3.28 0 0 1 15 32.35Z" fill="url(#a)"/><path d="M26.25 13.258c2.485 0 4.5-2.137 4.5-4.773 0-2.636-2.015-4.773-4.5-4.773s-4.5 2.137-4.5 4.773c0 2.636 2.015 4.773 4.5 4.773Z" fill="url(#b)"/><defs><linearGradient id="a" x1=".373" y1=".133" x2="26.242" y2=".133" gradientUnits="userSpaceOnUse"><stop stop-color="#FE5C28"/><stop offset="1" stop-color="#FF8B36" stop-opacity=".9"/></linearGradient><linearGradient id="b" x1="21.75" y1="3.712" x2="29.709" y2="3.712" gradientUnits="userSpaceOnUse"><stop stop-color="#FE5C28"/><stop offset="1" stop-color="#FF8B36" stop-opacity=".9"/></linearGradient></defs></svg>
